static/img/kroki/0b39a89cb2c3345f13ce55ae926da335.svg

<?xml version="1.0" encoding="us-ascii" standalone="no"?><svg xmlns="http://www.w3.org/2000/svg" xmlns:xlink="http://www.w3.org/1999/xlink" contentStyleType="text/css" height="374px" preserveAspectRatio="none" style="width:352px;height:374px;" version="1.1" viewBox="0 0 352 374" width="352px" zoomAndPan="magnify"><defs/><g><!--class azure_storage_blob_container--><g id="elem_azure_storage_blob_container"><rect codeLine="23" fill="#3D176E" height="39.7891" id="azure_storage_blob_container" rx="2.5" ry="2.5" style="stroke:#000D19;stroke-width:0.5;" width="291" x="7" y="328.58"/><ellipse cx="22" cy="348.4745" fill="#ADD1B2" rx="11" ry="11" style="stroke:#181818;stroke-width:1.0;"/><path d="M24.9688,354.1152 Q24.3906,354.412 23.75,354.5527 Q23.1094,354.7089 22.4063,354.7089 Q19.9063,354.7089 18.5781,353.0683 Q17.2656,351.412 17.2656,348.287 Q17.2656,345.162 18.5781,343.5058 Q19.9063,341.8495 22.4063,341.8495 Q23.1094,341.8495 23.75,342.0058 Q24.4063,342.162 24.9688,342.4589 L24.9688,345.1777 Q24.3438,344.5995 23.75,344.3339 Q23.1563,344.0527 22.5313,344.0527 Q21.1875,344.0527 20.5,345.1308 Q19.8125,346.1933 19.8125,348.287 Q19.8125,350.3808 20.5,351.4589 Q21.1875,352.5214 22.5313,352.5214 Q23.1563,352.5214 23.75,352.2558 Q24.3438,351.9745 24.9688,351.3964 L24.9688,354.1152 Z " fill="#000000"/><text fill="#D9B8FF" font-family="Helvetica" font-size="17" lengthAdjust="spacing" textLength="249" x="41" y="354.3598">azure_storage_blob_container</text></g><!--class bucket--><g id="elem_bucket"><rect codeLine="26" fill="#3D176E" height="39.7891" id="bucket" rx="2.5" ry="2.5" style="stroke:#000D19;stroke-width:0.5;" width="98" x="12.5" y="167.79"/><ellipse cx="27.5" cy="187.6845" fill="#ADD1B2" rx="11" ry="11" style="stroke:#181818;stroke-width:1.0;"/><path d="M30.4688,193.3252 Q29.8906,193.622 29.25,193.7627 Q28.6094,193.9189 27.9063,193.9189 Q25.4063,193.9189 24.0781,192.2783 Q22.7656,190.622 22.7656,187.497 Q22.7656,184.372 24.0781,182.7158 Q25.4063,181.0595 27.9063,181.0595 Q28.6094,181.0595 29.25,181.2158 Q29.9063,181.372 30.4688,181.6689 L30.4688,184.3877 Q29.8438,183.8095 29.25,183.5439 Q28.6563,183.2627 28.0313,183.2627 Q26.6875,183.2627 26,184.3408 Q25.3125,185.4033 25.3125,187.497 Q25.3125,189.5908 26,190.6689 Q26.6875,191.7314 28.0313,191.7314 Q28.6563,191.7314 29.25,191.4658 Q29.8438,191.1845 30.4688,190.6064 L30.4688,193.3252 Z " fill="#000000"/><text fill="#D9B8FF" font-family="Helvetica" font-size="17" lengthAdjust="spacing" textLength="56" x="46.5" y="193.5698">bucket</text></g><!--class microsoft_resource--><g id="elem_microsoft_resource"><rect codeLine="29" fill="#3D176E" height="39.7891" id="microsoft_resource" rx="2.5" ry="2.5" style="stroke:#000D19;stroke-width:0.5;" width="200" x="145.5" y="167.79"/><ellipse cx="160.5" cy="187.6845" fill="#ADD1B2" rx="11" ry="11" style="stroke:#181818;stroke-width:1.0;"/><path d="M163.4688,193.3252 Q162.8906,193.622 162.25,193.7627 Q161.6094,193.9189 160.9063,193.9189 Q158.4063,193.9189 157.0781,192.2783 Q155.7656,190.622 155.7656,187.497 Q155.7656,184.372 157.0781,182.7158 Q158.4063,181.0595 160.9063,181.0595 Q161.6094,181.0595 162.25,181.2158 Q162.9063,181.372 163.4688,181.6689 L163.4688,184.3877 Q162.8438,183.8095 162.25,183.5439 Q161.6563,183.2627 161.0313,183.2627 Q159.6875,183.2627 159,184.3408 Q158.3125,185.4033 158.3125,187.497 Q158.3125,189.5908 159,190.6689 Q159.6875,191.7314 161.0313,191.7314 Q161.6563,191.7314 162.25,191.4658 Q162.8438,191.1845 163.4688,190.6064 L163.4688,193.3252 Z " fill="#000000"/><text fill="#D9B8FF" font-family="Helvetica" font-size="17" lengthAdjust="spacing" textLength="158" x="179.5" y="193.5698">microsoft_resource</text></g><!--class resource--><g id="elem_resource"><rect codeLine="32" fill="#3D176E" height="39.7891" id="resource" rx="2.5" ry="2.5" style="stroke:#000D19;stroke-width:0.5;" width="113" x="96" y="7"/><ellipse cx="111" cy="26.8945" fill="#ADD1B2" rx="11" ry="11" style="stroke:#181818;stroke-width:1.0;"/><path d="M113.9688,32.5352 Q113.3906,32.832 112.75,32.9727 Q112.1094,33.1289 111.4063,33.1289 Q108.9063,33.1289 107.5781,31.4883 Q106.2656,29.832 106.2656,26.707 Q106.2656,23.582 107.5781,21.9258 Q108.9063,20.2695 111.4063,20.2695 Q112.1094,20.2695 112.75,20.4258 Q113.4063,20.582 113.9688,20.8789 L113.9688,23.5977 Q113.3438,23.0195 112.75,22.7539 Q112.1563,22.4727 111.5313,22.4727 Q110.1875,22.4727 109.5,23.5508 Q108.8125,24.6133 108.8125,26.707 Q108.8125,28.8008 109.5,29.8789 Q110.1875,30.9414 111.5313,30.9414 Q112.1563,30.9414 112.75,30.6758 Q113.3438,30.3945 113.9688,29.8164 L113.9688,32.5352 Z " fill="#000000"/><text fill="#D9B8FF" font-family="Helvetica" font-size="17" lengthAdjust="spacing" textLength="71" x="130" y="32.7798">resource</text></g><!--reverse link bucket to azure_storage_blob_container--><g id="link_bucket_azure_storage_blob_container"><path codeLine="35" d="M81.4298,223.4573 C98.9198,253.9773 123.97,297.69 141.48,328.25 " fill="none" id="bucket-backto-azure_storage_blob_container" style="stroke:#FFAF37;stroke-width:2.0;"/><polygon fill="none" points="72.48,207.84,76.224,226.4406,86.6356,220.4741,72.48,207.84" style="stroke:#FFAF37;stroke-width:2.0;"/></g><!--reverse link microsoft_resource to azure_storage_blob_container--><g id="link_microsoft_resource_azure_storage_blob_container"><path codeLine="36" d="M225.185,223.3732 C207.315,253.8932 181.66,297.69 163.76,328.25 " fill="none" id="microsoft_resource-backto-azure_storage_blob_container" style="stroke:#FFAF37;stroke-width:2.0;"/><polygon fill="none" points="234.28,207.84,220.0073,220.3416,230.3628,226.4049,234.28,207.84" style="stroke:#FFAF37;stroke-width:2.0;"/></g><!--reverse link resource to bucket--><g id="link_resource_bucket"><path codeLine="37" d="M132.5702,62.6673 C115.0802,93.1873 90.03,136.9 72.52,167.46 " fill="none" id="resource-backto-bucket" style="stroke:#FFAF37;stroke-width:2.0;"/><polygon fill="none" points="141.52,47.05,127.3644,59.6841,137.776,65.6506,141.52,47.05" style="stroke:#FFAF37;stroke-width:2.0;"/></g><!--reverse link resource to microsoft_resource--><g id="link_resource_microsoft_resource"><path codeLine="38" d="M172.815,62.5832 C190.685,93.1032 216.34,136.9 234.24,167.46 " fill="none" id="resource-backto-microsoft_resource" style="stroke:#FFAF37;stroke-width:2.0;"/><polygon fill="none" points="163.72,47.05,167.6372,65.6149,177.9927,59.5516,163.72,47.05" style="stroke:#FFAF37;stroke-width:2.0;"/></g><!--SRC=[ZP1FJy904CNl_HIRS2O1YGA95oGnUY56l3VJtLdOjDqXirC9gDzTAcYMbZzUt_lDl3UpT0OLbYlPg1BB33aa8NT-1GobcZ3JUae5iUfO2tOmR9gFvEKgC8CIrHCMxoXEGvDuMpgTUmn1tKJM0-XymLHviryl33xiBFGIKTC2GfY8iCigmQYC6MSZQvjaSsbdOFh3EsnXn0RvWFHwFTCVDv6hKHVl_YFcRekg7pzjHeAjcgs87-fYovg8IhOE_VNFTdm1OvnVgDj8UzrtOezyfC-NO6XTqnQA4CS4GKQIpGgdhQjmF39sU19-FWSdkdwTWct5c0OXXWMcMK5PgdV7WAkRVIJ9ru7BAfsZn4hfD5CWAobZe8ernkwnTfY-_-nsknSZanDR_p7LOFTnJRMzEla6]--></g></svg>

<svg xmlns="http://www.w3.org/2000/svg" width="352" height="374" viewBox="0 0 352 374"><rect width="291" height="39.789" x="7" y="328.58" fill="#3D176E" rx="2.5" ry="2.5" style="stroke:#000d19;stroke-width:.5"/><circle cx="22" cy="348.474" r="11" fill="#ADD1B2" style="stroke:#181818;stroke-width:1"/><path d="M24.969 354.115q-.578.297-1.219.438-.64.156-1.344.156-2.5 0-3.828-1.64-1.312-1.657-1.312-4.782t1.312-4.781q1.328-1.656 3.828-1.656.703 0 1.344.156.656.156 1.219.453v2.719q-.625-.579-1.219-.844-.594-.281-1.219-.281-1.343 0-2.031 1.078-.687 1.062-.687 3.156t.687 3.172q.688 1.062 2.031 1.062.625 0 1.219-.265.594-.281 1.219-.86z"/><text x="41" y="354.36" fill="#D9B8FF" font-family="Helvetica" font-size="17" textLength="249">azure_storage_blob_container</text><rect width="98" height="39.789" x="12.5" y="167.79" fill="#3D176E" rx="2.5" ry="2.5" style="stroke:#000d19;stroke-width:.5"/><circle cx="27.5" cy="187.685" r="11" fill="#ADD1B2" style="stroke:#181818;stroke-width:1"/><path d="M30.469 193.325q-.578.297-1.219.438-.64.156-1.344.156-2.5 0-3.828-1.64-1.312-1.657-1.312-4.782t1.312-4.781q1.328-1.656 3.828-1.656.703 0 1.344.156.656.156 1.219.453v2.719q-.625-.578-1.219-.844-.594-.281-1.219-.281-1.343 0-2.031 1.078-.687 1.062-.687 3.156t.687 3.172q.688 1.062 2.031 1.062.625 0 1.219-.265.594-.281 1.219-.86z"/><text x="46.5" y="193.57" fill="#D9B8FF" font-family="Helvetica" font-size="17" textLength="56">bucket</text><rect width="200" height="39.789" x="145.5" y="167.79" fill="#3D176E" rx="2.5" ry="2.5" style="stroke:#000d19;stroke-width:.5"/><circle cx="160.5" cy="187.685" r="11" fill="#ADD1B2" style="stroke:#181818;stroke-width:1"/><path d="M163.469 193.325q-.578.297-1.219.438-.64.156-1.344.156-2.5 0-3.828-1.64-1.312-1.657-1.312-4.782t1.312-4.781q1.328-1.656 3.828-1.656.703 0 1.344.156.656.156 1.219.453v2.719q-.625-.578-1.219-.844-.594-.281-1.219-.281-1.344 0-2.031 1.078-.687 1.062-.687 3.156t.687 3.172q.688 1.062 2.031 1.062.625 0 1.219-.265.594-.281 1.219-.86z"/><text x="179.5" y="193.57" fill="#D9B8FF" font-family="Helvetica" font-size="17" textLength="158">microsoft_resource</text><rect width="113" height="39.789" x="96" y="7" fill="#3D176E" rx="2.5" ry="2.5" style="stroke:#000d19;stroke-width:.5"/><circle cx="111" cy="26.895" r="11" fill="#ADD1B2" style="stroke:#181818;stroke-width:1"/><path d="M113.969 32.535q-.578.297-1.219.438-.64.156-1.344.156-2.5 0-3.828-1.64-1.312-1.657-1.312-4.782t1.312-4.781q1.328-1.656 3.828-1.656.703 0 1.344.156.656.156 1.219.453v2.719q-.625-.578-1.219-.844-.594-.281-1.219-.281-1.344 0-2.031 1.078-.687 1.062-.687 3.156t.687 3.172q.688 1.062 2.031 1.062.625 0 1.219-.265.594-.281 1.219-.86z"/><text x="130" y="32.78" fill="#D9B8FF" font-family="Helvetica" font-size="17" textLength="71">resource</text><g fill="none"><path d="M81.43 223.457c17.49 30.52 42.54 74.233 60.05 104.793" style="stroke:#ffaf37;stroke-width:2"/><path d="m72.48 207.84 3.744 18.6 10.412-5.966z" style="stroke:#ffaf37;stroke-width:2"/></g><g fill="none"><path d="M225.185 223.373c-17.87 30.52-43.525 74.317-61.425 104.877" style="stroke:#ffaf37;stroke-width:2"/><path d="m234.28 207.84-14.273 12.502 10.356 6.063z" style="stroke:#ffaf37;stroke-width:2"/></g><g fill="none"><path d="M132.57 62.667C115.08 93.187 90.03 136.9 72.52 167.46" style="stroke:#ffaf37;stroke-width:2"/><path d="m141.52 47.05-14.156 12.634 10.412 5.967z" style="stroke:#ffaf37;stroke-width:2"/></g><g fill="none"><path d="M172.815 62.583c17.87 30.52 43.525 74.317 61.425 104.877" style="stroke:#ffaf37;stroke-width:2"/><path d="m163.72 47.05 3.917 18.565 10.356-6.063z" style="stroke:#ffaf37;stroke-width:2"/></g></svg>
